X:6
T:No 6 Polska
T:ur Sven Johnssons notbok
R:Polska
O:Mörrum, Blekinge
B:Sven Johnssons notbok 
M:3/4
L:1/16
Q:1/4=100
Z:Peter Svensson
K:D
A2|d2dA F2FA d2dA | B2BG E4d4 | (cd)ef g2eg f2df | (ef)ed c2cB c2A2 | 
d2dA F2FA d2dA | B2BG E4d4 | (cd)ef g2eg f2df | (eg)ec d4 d2 :|:
A2|(DF)AF (DF)AF (DF)AF | (DG)BG (DG)BG (DG)BG | (Ac)ec (Ac)ec (Ac)ec | d2df efed c2A2 | 
d2dA F2FA d2dA | B2BG E4d4 | (cd)ef g2eg f2df | (eg)ec d4 d2 :|

